static/img/kroki/ed82d0d350a9464d16cb5660bd42b193.svg

<?xml version="1.0" encoding="us-ascii" standalone="no"?><svg xmlns="http://www.w3.org/2000/svg" xmlns:xlink="http://www.w3.org/1999/xlink" contentStyleType="text/css" height="252px" preserveAspectRatio="none" style="width:396px;height:252px;" version="1.1" viewBox="0 0 396 252" width="396px" zoomAndPan="magnify"><defs/><g><!--class aws_athena_work_group--><g id="elem_aws_athena_work_group"><rect codeLine="22" fill="#3D176E" height="39.7891" id="aws_athena_work_group" rx="2.5" ry="2.5" style="stroke:#000D19;stroke-width:0.5;" width="251" x="72.43" y="7"/><ellipse cx="87.43" cy="26.8945" fill="#ADD1B2" rx="11" ry="11" style="stroke:#181818;stroke-width:1.0;"/><path d="M90.3988,32.5352 Q89.8206,32.832 89.18,32.9727 Q88.5394,33.1289 87.8363,33.1289 Q85.3363,33.1289 84.0081,31.4883 Q82.6956,29.832 82.6956,26.707 Q82.6956,23.582 84.0081,21.9258 Q85.3363,20.2695 87.8363,20.2695 Q88.5394,20.2695 89.18,20.4258 Q89.8363,20.582 90.3988,20.8789 L90.3988,23.5977 Q89.7738,23.0195 89.18,22.7539 Q88.5863,22.4727 87.9613,22.4727 Q86.6175,22.4727 85.93,23.5508 Q85.2425,24.6133 85.2425,26.707 Q85.2425,28.8008 85.93,29.8789 Q86.6175,30.9414 87.9613,30.9414 Q88.5863,30.9414 89.18,30.6758 Q89.7738,30.3945 90.3988,29.8164 L90.3988,32.5352 Z " fill="#000000"/><text fill="#D9B8FF" font-family="Helvetica" font-size="17" lengthAdjust="spacing" textLength="209" x="106.43" y="32.7798">aws_athena_work_group</text></g><!--class aws_kms_key--><g id="elem_aws_kms_key"><rect codeLine="24" fill="#3D176E" height="39.7891" id="aws_kms_key" rx="2.5" ry="2.5" style="stroke:#000D19;stroke-width:0.5;" width="158" x="17.93" y="206.58"/><ellipse cx="32.93" cy="226.4745" fill="#ADD1B2" rx="11" ry="11" style="stroke:#181818;stroke-width:1.0;"/><path d="M35.8988,232.1152 Q35.3206,232.412 34.68,232.5527 Q34.0394,232.7089 33.3363,232.7089 Q30.8363,232.7089 29.5081,231.0683 Q28.1956,229.412 28.1956,226.287 Q28.1956,223.162 29.5081,221.5058 Q30.8363,219.8495 33.3363,219.8495 Q34.0394,219.8495 34.68,220.0058 Q35.3363,220.162 35.8988,220.4589 L35.8988,223.1777 Q35.2738,222.5995 34.68,222.3339 Q34.0863,222.0527 33.4613,222.0527 Q32.1175,222.0527 31.43,223.1308 Q30.7425,224.1933 30.7425,226.287 Q30.7425,228.3808 31.43,229.4589 Q32.1175,230.5214 33.4613,230.5214 Q34.0863,230.5214 34.68,230.2558 Q35.2738,229.9745 35.8988,229.3964 L35.8988,232.1152 Z " fill="#000000"/><text fill="#D9B8FF" font-family="Helvetica" font-size="17" lengthAdjust="spacing" textLength="116" x="51.93" y="232.3598">aws_kms_key</text></g><!--class aws_s3_bucket--><g id="elem_aws_s3_bucket"><rect codeLine="26" fill="#3D176E" height="39.7891" id="aws_s3_bucket" rx="2.5" ry="2.5" style="stroke:#000D19;stroke-width:0.5;" width="168" x="214.93" y="206.58"/><ellipse cx="229.93" cy="226.4745" fill="#ADD1B2" rx="11" ry="11" style="stroke:#181818;stroke-width:1.0;"/><path d="M232.8988,232.1152 Q232.3206,232.412 231.68,232.5527 Q231.0394,232.7089 230.3363,232.7089 Q227.8363,232.7089 226.5081,231.0683 Q225.1956,229.412 225.1956,226.287 Q225.1956,223.162 226.5081,221.5058 Q227.8363,219.8495 230.3363,219.8495 Q231.0394,219.8495 231.68,220.0058 Q232.3363,220.162 232.8988,220.4589 L232.8988,223.1777 Q232.2738,222.5995 231.68,222.3339 Q231.0863,222.0527 230.4613,222.0527 Q229.1175,222.0527 228.43,223.1308 Q227.7425,224.1933 227.7425,226.287 Q227.7425,228.3808 228.43,229.4589 Q229.1175,230.5214 230.4613,230.5214 Q231.0863,230.5214 231.68,230.2558 Q232.2738,229.9745 232.8988,229.3964 L232.8988,232.1152 Z " fill="#000000"/><text fill="#D9B8FF" font-family="Helvetica" font-size="17" lengthAdjust="spacing" textLength="126" x="248.93" y="232.3598">aws_s3_bucket</text></g><!--class aws_sagemaker_processing_job--><g id="elem_aws_sagemaker_processing_job"><rect codeLine="28" fill="#3D176E" height="39.7891" id="aws_sagemaker_processing_job" rx="2.5" ry="2.5" style="stroke:#000D19;stroke-width:0.5;" width="306" x="44.93" y="106.79"/><ellipse cx="59.93" cy="126.6845" fill="#ADD1B2" rx="11" ry="11" style="stroke:#181818;stroke-width:1.0;"/><path d="M62.8988,132.3252 Q62.3206,132.622 61.68,132.7627 Q61.0394,132.9189 60.3363,132.9189 Q57.8363,132.9189 56.5081,131.2783 Q55.1956,129.622 55.1956,126.497 Q55.1956,123.372 56.5081,121.7158 Q57.8363,120.0595 60.3363,120.0595 Q61.0394,120.0595 61.68,120.2158 Q62.3363,120.372 62.8988,120.6689 L62.8988,123.3877 Q62.2738,122.8095 61.68,122.5439 Q61.0863,122.2627 60.4613,122.2627 Q59.1175,122.2627 58.43,123.3408 Q57.7425,124.4033 57.7425,126.497 Q57.7425,128.5908 58.43,129.6689 Q59.1175,130.7314 60.4613,130.7314 Q61.0863,130.7314 61.68,130.4658 Q62.2738,130.1845 62.8988,129.6064 L62.8988,132.3252 Z " fill="#000000"/><text fill="#D9B8FF" font-family="Helvetica" font-size="17" lengthAdjust="spacing" textLength="264" x="78.93" y="132.5698">aws_sagemaker_processing_job</text></g><!--link aws_athena_work_group to aws_kms_key--><g id="link_aws_athena_work_group_aws_kms_key"><path codeLine="30" d="M110.29,47.18 C78.45,58.88 45.7,77.46 26.93,106.79 C6,139.5 39.75,178.44 67.26,202.57 " fill="none" id="aws_athena_work_group-to-aws_kms_key" style="stroke:#1A83AF;stroke-width:2.0;"/><polygon fill="#1A83AF" points="70.61,206.31,66.3964,197.408,66.8198,203.049,61.1788,203.4723,70.61,206.31" style="stroke:#1A83AF;stroke-width:2.0;"/></g><!--link aws_athena_work_group to aws_s3_bucket--><g id="link_aws_athena_work_group_aws_s3_bucket"><path codeLine="31" d="M285.57,47.18 C317.41,58.88 350.16,77.46 368.93,106.79 C389.86,139.5 356.11,178.44 328.6,202.57 " fill="none" id="aws_athena_work_group-to-aws_s3_bucket" style="stroke:#1A83AF;stroke-width:2.0;"/><polygon fill="#1A83AF" points="325.25,206.31,334.6812,203.4723,329.0402,203.049,329.4636,197.408,325.25,206.31" style="stroke:#1A83AF;stroke-width:2.0;"/></g><!--link aws_athena_work_group to aws_sagemaker_processing_job--><g id="link_aws_athena_work_group_aws_sagemaker_processing_job"><path codeLine="32" d="M197.93,47.22 C197.93,62.49 197.93,83.92 197.93,100.53 " fill="none" id="aws_athena_work_group-to-aws_sagemaker_processing_job" style="stroke:#1A83AF;stroke-width:2.0;"/><polygon fill="#1A83AF" points="197.93,105.41,201.93,96.41,197.93,100.41,193.93,96.41,197.93,105.41" style="stroke:#1A83AF;stroke-width:2.0;"/></g><!--link aws_sagemaker_processing_job to aws_kms_key--><g id="link_aws_sagemaker_processing_job_aws_kms_key"><path codeLine="33" d="M177.98,147.01 C161.65,162.81 138.51,185.22 121.13,202.05 " fill="none" id="aws_sagemaker_processing_job-to-aws_kms_key" style="stroke:#1A83AF;stroke-width:2.0;"/><polygon fill="#1A83AF" points="117.84,205.2,127.0884,201.8138,121.4323,201.7222,121.5239,196.0661,117.84,205.2" style="stroke:#1A83AF;stroke-width:2.0;"/></g><!--link aws_sagemaker_processing_job to aws_s3_bucket--><g id="link_aws_sagemaker_processing_job_aws_s3_bucket"><path codeLine="34" d="M217.88,147.01 C234.21,162.81 257.35,185.22 274.73,202.05 " fill="none" id="aws_sagemaker_processing_job-to-aws_s3_bucket" style="stroke:#1A83AF;stroke-width:2.0;"/><polygon fill="#1A83AF" points="278.02,205.2,274.3361,196.0661,274.4277,201.7222,268.7716,201.8138,278.02,205.2" style="stroke:#1A83AF;stroke-width:2.0;"/></g><!--SRC=[ZP91Jy8m5CVlV8ecd4cOYm8Naqb2z4ACU3DcULjVsUpQBg_51OtVtGsKb0q6XrtU_zU-txzPbdDag4gtPGfLWcG7LkQw10B58Y9JpKrXY0s5015Esk72Q7SHM892zeZ59xeyXJRnckMfr6Wjk_6Y1qZbcin6y_trZa3REaBjF6fUWBMHSvGd6uUU39ybKo7QPFlIOSY3oHrsC4CSwGyPZySycBMHYwjwUn-8LVw5BF0VRMaSTZGxAtPKhsL3U9ATel_vMSTdu3pNQtRhpLxsJgIHZkQh3BYf6bf0OVqrrY6XSTiIvvrME9joCJa9Fvs3q-Rb65Gs1fUXXhWo9EE6BDdtuCVBfQe_tBQcDeoJJIhHjUUmHWKIAIx9fFNFM9U9Fqoomqwl6xqDWsWQHeltqRs_yLhye7BrWJEEWzu2lPhNdphO_W80]--></g></svg>

<svg xmlns="http://www.w3.org/2000/svg" width="396" height="252" preserveAspectRatio="none" style="width:396px;height:252px"><rect width="251" height="39.789" x="72.43" y="7" fill="#3D176E" rx="2.5" ry="2.5" style="stroke:#000d19;stroke-width:.5"/><circle cx="87.43" cy="26.895" r="11" fill="#ADD1B2" style="stroke:#181818;stroke-width:1"/><path d="M90.399 32.535q-.578.297-1.219.438-.64.156-1.344.156-2.5 0-3.828-1.64-1.312-1.657-1.312-4.782t1.312-4.781q1.328-1.656 3.828-1.656.703 0 1.344.156.656.156 1.219.453v2.719q-.625-.578-1.219-.844-.594-.281-1.219-.281-1.343 0-2.031 1.078-.688 1.062-.688 3.156 0 2.094.688 3.172.688 1.062 2.031 1.062.625 0 1.219-.265.594-.281 1.219-.86v2.72Z"/><text x="106.43" y="32.78" fill="#D9B8FF" font-family="Helvetica" font-size="17" textLength="209">aws_athena_work_group</text><rect width="158" height="39.789" x="17.93" y="206.58" fill="#3D176E" rx="2.5" ry="2.5" style="stroke:#000d19;stroke-width:.5"/><circle cx="32.93" cy="226.475" r="11" fill="#ADD1B2" style="stroke:#181818;stroke-width:1"/><path d="M35.899 232.115q-.578.297-1.219.438-.64.156-1.344.156-2.5 0-3.828-1.64-1.312-1.657-1.312-4.782t1.312-4.781q1.328-1.656 3.828-1.656.703 0 1.344.156.656.156 1.219.453v2.719q-.625-.578-1.219-.844-.594-.281-1.219-.281-1.343 0-2.031 1.078-.688 1.062-.688 3.156 0 2.094.688 3.172.688 1.062 2.031 1.062.625 0 1.219-.265.594-.281 1.219-.86v2.72Z"/><text x="51.93" y="232.36" fill="#D9B8FF" font-family="Helvetica" font-size="17" textLength="116">aws_kms_key</text><rect width="168" height="39.789" x="214.93" y="206.58" fill="#3D176E" rx="2.5" ry="2.5" style="stroke:#000d19;stroke-width:.5"/><circle cx="229.93" cy="226.475" r="11" fill="#ADD1B2" style="stroke:#181818;stroke-width:1"/><path d="M232.899 232.115q-.578.297-1.219.438-.64.156-1.344.156-2.5 0-3.828-1.64-1.312-1.657-1.312-4.782t1.312-4.781q1.328-1.656 3.828-1.656.703 0 1.344.156.656.156 1.219.453v2.719q-.625-.578-1.219-.844-.594-.281-1.219-.281-1.344 0-2.031 1.078-.688 1.062-.688 3.156 0 2.094.688 3.172.688 1.062 2.031 1.062.625 0 1.219-.265.594-.281 1.219-.86v2.72Z"/><text x="248.93" y="232.36" fill="#D9B8FF" font-family="Helvetica" font-size="17" textLength="126">aws_s3_bucket</text><rect width="306" height="39.789" x="44.93" y="106.79" fill="#3D176E" rx="2.5" ry="2.5" style="stroke:#000d19;stroke-width:.5"/><circle cx="59.93" cy="126.684" r="11" fill="#ADD1B2" style="stroke:#181818;stroke-width:1"/><path d="M62.899 132.325q-.578.297-1.219.438-.64.156-1.344.156-2.5 0-3.828-1.64-1.312-1.657-1.312-4.782t1.312-4.781q1.328-1.656 3.828-1.656.703 0 1.344.156.656.156 1.219.453v2.719q-.625-.579-1.219-.844-.594-.281-1.219-.281-1.343 0-2.031 1.078-.688 1.062-.688 3.156 0 2.094.688 3.172.688 1.062 2.031 1.062.625 0 1.219-.265.594-.281 1.219-.86v2.72Z"/><text x="78.93" y="132.57" fill="#D9B8FF" font-family="Helvetica" font-size="17" textLength="264">aws_sagemaker_processing_job</text><path fill="none" d="M110.29 47.18c-31.84 11.7-64.59 30.28-83.36 59.61C6 139.5 39.75 178.44 67.26 202.57" style="stroke:#1a83af;stroke-width:2"/><path fill="#1A83AF" d="m70.61 206.31-4.214-8.902.424 5.641-5.641.423 9.431 2.838z" style="stroke:#1a83af;stroke-width:2"/><path fill="none" d="M285.57 47.18c31.84 11.7 64.59 30.28 83.36 59.61 20.93 32.71-12.82 71.65-40.33 95.78" style="stroke:#1a83af;stroke-width:2"/><path fill="#1A83AF" d="m325.25 206.31 9.431-2.838-5.64-.423.423-5.641-4.214 8.902z" style="stroke:#1a83af;stroke-width:2"/><path fill="none" d="M197.93 47.22v53.31" style="stroke:#1a83af;stroke-width:2"/><path fill="#1A83AF" d="m197.93 105.41 4-9-4 4-4-4 4 9z" style="stroke:#1a83af;stroke-width:2"/><path fill="none" d="M177.98 147.01c-16.33 15.8-39.47 38.21-56.85 55.04" style="stroke:#1a83af;stroke-width:2"/><path fill="#1A83AF" d="m117.84 205.2 9.248-3.386-5.656-.092.092-5.656-3.684 9.134z" style="stroke:#1a83af;stroke-width:2"/><path fill="none" d="M217.88 147.01c16.33 15.8 39.47 38.21 56.85 55.04" style="stroke:#1a83af;stroke-width:2"/><path fill="#1A83AF" d="m278.02 205.2-3.684-9.134.092 5.656-5.656.092 9.248 3.386z" style="stroke:#1a83af;stroke-width:2"/></svg>
